X:33
T:Sacramento (c)
M:2/4
L:1/16
Q:1/4=3D90
K:Eb
BB|\
E2G2 B2ee|ccBB G2EF|G2F4   EF|G2F4 B2|
E2GG B2ee|c2BB G2EF|G2F2 G2F2|E8    ||
E4   G2B2|e6     d2|c3d  e2c2|B6   e2|
ccc2 c2B2|c2B2 G2EF|G2GG G3F |F2E4  ||
%  ABC2Win Version 2.1 13/10/2000
